public/avatar/item0/56.svg

<svg xmlns:xlink="http://www.w3.org/1999/xlink" height="58.65" width="49.15" xmlns="http://www.w3.org/2000/svg"><use height="41.5" transform="translate(4.3 11.1)" width="38.85" xlink:href="#a"/><defs><g id="a" fill-rule="evenodd"><path d="M-.9-5.95q-8.25.05-12.85 6.1-3.7 4.9-3.7 11.2v.35l-.35.15q-1.1.6-1.1 2.6l.05.35q.15 2.55 2.65 3.25l.25.1.1.25q1.3 3.95 4.55 7.7 4.3 4.95 9.95 6.5h.95q5.7-1.55 10.05-6.5 3.3-3.7 4.65-7.7l.05-.25.3-.1q2.45-.7 2.7-3.25v-.35q0-2-1.1-2.6l-.3-.15v-.35q0-6.3-3.75-11.2-4.65-6.05-13-6.1h-.1m-13.3 5.3Q-9.25-6.95-.55-7h.1q8.8.05 13.8 6.35 4.2 5.3 4.2 12.3 1.7.75 1.5 3.6-.25 3.05-3.25 3.9-1.5 4.45-5.1 8.5Q5.9 33-.45 34.5h-.1q-6.25-1.5-11-6.85-3.6-4-5.1-8.5-2.95-.85-3.15-3.9-.2-2.85 1.45-3.6 0-7 4.15-12.3" fill="#00563a" transform="translate(19.8 7)"/><path d="m-11.55 8.2.1-.45Q-9.3-.4-1.05-2.65q4.15-1.1 7.9-.65Q3.5-5.35-1.2-5.4h-.1q-7.8.05-12.1 5.85-3.55 4.7-3.55 10.75v.35l-.25.15q-1.05.5-1.05 2.45v.35q.25 2.45 2.5 3.1l.3.05.05.3q1.25 3.8 4.3 7.4 4.05 4.7 9.4 6.2-3.1-3.45-5.9-8.05l-1.55-2.8q1.35 1.05 3.35 1.45l3.85.1q.9-4.25-2.1-9.1Q-5.9 10.1-9.5 8.7l-2.05-.5M-.9-5.95h.1q8.35.05 13 6.1 3.75 4.9 3.75 11.2v.35l.3.15q1.1.6 1.1 2.6v.35q-.25 2.55-2.7 3.25l-.3.1-.05.25q-1.35 4-4.65 7.7Q5.3 31.05-.4 32.6h-.95Q-7 31.05-11.3 26.1q-3.25-3.75-4.55-7.7l-.1-.25-.25-.1q-2.5-.7-2.65-3.25l-.05-.35q0-2 1.1-2.6l.35-.15v-.35q0-6.3 3.7-11.2Q-9.15-5.9-.9-5.95m15.95 16.7q-.3-5.55-3.25-9.7L8.95-2q3.75 6.15.1 7.75Q1.45 9 .45 16.35q-.65 4.85 1.25 9.3Q3.05 28.9.2 31.4q5.25-1.05 10.3-8.05 4.2-6.85 4.8-7.1.85-.35.85-1.3-.05-1-.6-.7-.5.35-.5-3.5" fill="#22e589" transform="translate(19.8 7)"/><path d="m-9.15 20.7 1.55 2.8q2.8 4.6 5.9 8.05-5.35-1.5-9.4-6.2-3.05-3.6-4.3-7.4l-.05-.3-.3-.05q-2.25-.65-2.5-3.1v-.35q0-1.95 1.05-2.45l.25-.15v-.35q0-6.05 3.55-10.75 4.3-5.8 12.1-5.85h.1q4.7.05 8.05 2.1-3.75-.45-7.9.65Q-9.3-.4-11.45 7.75l-.1.45-1.15-.3-.15 2.75q.15 3.5 1.55 7.1.7 1.85 2.15 2.95" fill="#97ffcf" transform="translate(19.8 7)"/><path d="M11.6 7.9q-1.35.1-3.1.8-3.45 1.4-5.25 4.45Q.35 18 1.2 22.25l3.75-.1q4-.8 5.35-4.4 1.35-3.6 1.45-7.1L11.6 7.9m3.45 2.85q0 3.85.5 3.5.55-.3.6.7 0 .95-.85 1.3-.6.25-4.8 7.1-5.05 7-10.3 8.05 2.85-2.5 1.5-5.75-1.9-4.45-1.25-9.3 1-7.35 8.6-10.6 3.65-1.6-.1-7.75l2.85 3.05q2.95 4.15 3.25 9.7" fill="#00b662" transform="translate(19.8 7)"/><path d="M-9.15 20.7q-1.45-1.1-2.15-2.95-1.4-3.6-1.55-7.1l.15-2.75 1.15.3 2.05.5q3.6 1.4 5.45 4.45 3 4.85 2.1 9.1l-3.85-.1q-2-.4-3.35-1.45m-2.65-10.15q0 3.3 1.35 6.75 1.8 4.5 7.5 3.8l.05-.9q0-3.4-1.9-6.6-2.3-3.65-6.9-4.4l-.1 1.35m22.55 0-.1-1.35Q6.2 9.95 4 13.6q-1.9 3.2-1.9 6.6l.05.9q5.6.65 7.3-3.8 1.3-3.45 1.3-6.75m.85-2.65.15 2.75q-.1 3.5-1.45 7.1-1.35 3.6-5.35 4.4l-3.75.1Q.35 18 3.25 13.15 5.05 10.1 8.5 8.7q1.75-.7 3.1-.8" fill="#252829" transform="translate(19.8 7)"/><path d="m-11.8 10.55.1-1.35q4.6.75 6.9 4.4 1.9 3.2 1.9 6.6l-.05.9q-5.7.7-7.5-3.8-1.35-3.45-1.35-6.75m1.8 2.9 1.95.3q1.5 0 4.35 3.75-.25-2.6-2.25-4.75-1.25-1.3-3.35-2.3l-1.9-.7q.35 3 1.2 3.7m20.75-2.9q0 3.3-1.3 6.75-1.7 4.45-7.3 3.8l-.05-.9q0-3.4 1.9-6.6 2.2-3.65 6.65-4.4l.1 1.35M9 13.45q.8-.7 1.15-3.7l-1.8.7q-2.1 1-3.3 2.3Q3.1 14.9 2.9 17.5l1.55-1.85q1.75-1.9 2.65-1.9l1.9-.3" fill="#415552" transform="translate(19.8 7)"/><path d="M-10 13.45q-.85-.7-1.2-3.7l1.9.7q2.1 1 3.35 2.3 2 2.15 2.25 4.75-2.85-3.75-4.35-3.75l-1.95-.3m19 0-1.9.3q-.9 0-2.65 1.9L2.9 17.5q.2-2.6 2.15-4.75 1.2-1.3 3.3-2.3l1.8-.7q-.35 3-1.15 3.7" fill="#6f7e88" transform="translate(19.8 7)"/></g></defs></svg>

<?xml version="1.0" encoding="UTF-8" standalone="no"?>
<svg xmlns:xlink="http://www.w3.org/1999/xlink" height="58.65px" width="49.15px" xmlns="http://www.w3.org/2000/svg">
  <g transform="matrix(1.0, 0.0, 0.0, 1.0, 24.1, 18.1)">
    <use height="41.5" transform="matrix(1.0, 0.0, 0.0, 1.0, -19.8, -7.0)" width="38.85" xlink:href="#shape0"/>
  </g>
  <defs>
    <g id="shape0" transform="matrix(1.0, 0.0, 0.0, 1.0, 19.8, 7.0)">
      <path d="M-0.9 -5.95 Q-9.15 -5.9 -13.75 0.15 -17.45 5.05 -17.45 11.35 L-17.45 11.7 -17.8 11.85 Q-18.9 12.45 -18.9 14.45 L-18.85 14.8 Q-18.7 17.35 -16.2 18.05 L-15.95 18.15 -15.85 18.4 Q-14.55 22.35 -11.3 26.1 -7.0 31.05 -1.35 32.6 L-0.4 32.6 Q5.3 31.05 9.65 26.1 12.95 22.4 14.3 18.4 L14.35 18.15 14.65 18.05 Q17.1 17.35 17.35 14.8 L17.35 14.45 Q17.35 12.45 16.25 11.85 L15.95 11.7 15.95 11.35 Q15.95 5.05 12.2 0.15 7.55 -5.9 -0.8 -5.95 L-0.9 -5.95 M-14.2 -0.65 Q-9.25 -6.95 -0.55 -7.0 L-0.45 -7.0 Q8.35 -6.95 13.35 -0.65 17.55 4.65 17.55 11.65 19.25 12.4 19.05 15.25 18.8 18.3 15.8 19.15 14.3 23.6 10.7 27.65 5.9 33.0 -0.45 34.5 L-0.55 34.5 Q-6.8 33.0 -11.55 27.65 -15.15 23.65 -16.65 19.15 -19.6 18.3 -19.8 15.25 -20.0 12.4 -18.35 11.65 -18.35 4.65 -14.2 -0.65" fill="#00563a" fill-rule="evenodd" stroke="none"/>
      <path d="M-11.55 8.2 L-11.45 7.75 Q-9.3 -0.4 -1.05 -2.65 3.1 -3.75 6.85 -3.3 3.5 -5.35 -1.2 -5.4 L-1.3 -5.4 Q-9.1 -5.35 -13.4 0.45 -16.95 5.15 -16.95 11.2 L-16.95 11.55 -17.2 11.7 Q-18.25 12.2 -18.25 14.15 L-18.25 14.5 Q-18.0 16.95 -15.75 17.6 L-15.45 17.65 -15.4 17.95 Q-14.15 21.75 -11.1 25.35 -7.05 30.05 -1.7 31.55 -4.8 28.1 -7.6 23.5 L-9.15 20.7 Q-7.8 21.75 -5.8 22.15 L-1.95 22.25 Q-1.05 18.0 -4.05 13.15 -5.9 10.1 -9.5 8.7 L-11.55 8.2 M-0.9 -5.95 L-0.8 -5.95 Q7.55 -5.9 12.2 0.15 15.95 5.05 15.95 11.35 L15.95 11.7 16.25 11.85 Q17.35 12.45 17.35 14.45 L17.35 14.8 Q17.1 17.35 14.65 18.05 L14.35 18.15 14.3 18.4 Q12.95 22.4 9.65 26.1 5.3 31.05 -0.4 32.6 L-1.35 32.6 Q-7.0 31.05 -11.3 26.1 -14.55 22.35 -15.85 18.4 L-15.95 18.15 -16.2 18.05 Q-18.7 17.35 -18.85 14.8 L-18.9 14.45 Q-18.9 12.45 -17.8 11.85 L-17.45 11.7 -17.45 11.35 Q-17.45 5.05 -13.75 0.15 -9.15 -5.9 -0.9 -5.95 M15.05 10.75 Q14.75 5.2 11.8 1.05 L8.95 -2.0 Q12.7 4.15 9.05 5.75 1.45 9.0 0.45 16.35 -0.2 21.2 1.7 25.65 3.05 28.9 0.2 31.4 5.45 30.35 10.5 23.35 14.7 16.5 15.3 16.25 16.15 15.9 16.15 14.95 16.1 13.95 15.55 14.25 15.05 14.6 15.05 10.75" fill="#22e589" fill-rule="evenodd" stroke="none"/>
      <path d="M-9.15 20.7 L-7.6 23.5 Q-4.8 28.1 -1.7 31.55 -7.05 30.05 -11.1 25.35 -14.15 21.75 -15.4 17.95 L-15.45 17.65 -15.75 17.6 Q-18.0 16.95 -18.25 14.5 L-18.25 14.15 Q-18.25 12.2 -17.2 11.7 L-16.95 11.55 -16.95 11.2 Q-16.95 5.15 -13.4 0.45 -9.1 -5.35 -1.3 -5.4 L-1.2 -5.4 Q3.5 -5.35 6.85 -3.3 3.1 -3.75 -1.05 -2.65 -9.3 -0.4 -11.45 7.75 L-11.55 8.2 -12.7 7.9 -12.85 10.65 Q-12.7 14.15 -11.3 17.75 -10.6 19.6 -9.15 20.7" fill="#97ffcf" fill-rule="evenodd" stroke="none"/>
      <path d="M11.6 7.9 Q10.25 8.0 8.5 8.7 5.05 10.1 3.25 13.15 0.35 18.0 1.2 22.25 L4.95 22.15 Q8.95 21.35 10.3 17.75 11.65 14.15 11.75 10.65 L11.6 7.9 M15.05 10.75 Q15.05 14.6 15.55 14.25 16.1 13.95 16.15 14.95 16.15 15.9 15.3 16.25 14.7 16.5 10.5 23.35 5.45 30.35 0.2 31.4 3.05 28.9 1.7 25.65 -0.2 21.2 0.45 16.35 1.45 9.0 9.05 5.75 12.7 4.15 8.95 -2.0 L11.8 1.05 Q14.75 5.2 15.05 10.75" fill="#00b662" fill-rule="evenodd" stroke="none"/>
      <path d="M-9.15 20.7 Q-10.6 19.6 -11.3 17.75 -12.7 14.15 -12.85 10.65 L-12.7 7.9 -11.55 8.2 -9.5 8.7 Q-5.9 10.1 -4.05 13.15 -1.05 18.0 -1.95 22.25 L-5.8 22.15 Q-7.8 21.75 -9.15 20.7 M-11.8 10.55 Q-11.8 13.85 -10.45 17.3 -8.65 21.8 -2.95 21.1 L-2.9 20.2 Q-2.9 16.8 -4.8 13.6 -7.1 9.95 -11.7 9.2 L-11.8 10.55 M10.75 10.55 L10.65 9.2 Q6.2 9.95 4.0 13.6 2.1 16.8 2.1 20.2 L2.15 21.1 Q7.75 21.75 9.45 17.3 10.75 13.85 10.75 10.55 M11.6 7.9 L11.75 10.65 Q11.65 14.15 10.3 17.75 8.95 21.35 4.95 22.15 L1.2 22.25 Q0.35 18.0 3.25 13.15 5.05 10.1 8.5 8.7 10.25 8.0 11.6 7.9" fill="#252829" fill-rule="evenodd" stroke="none"/>
      <path d="M-11.8 10.55 L-11.7 9.2 Q-7.1 9.95 -4.8 13.6 -2.9 16.8 -2.9 20.2 L-2.95 21.1 Q-8.65 21.8 -10.45 17.3 -11.8 13.85 -11.8 10.55 M-10.0 13.45 L-8.05 13.75 Q-6.55 13.75 -3.7 17.5 -3.95 14.9 -5.95 12.75 -7.2 11.45 -9.3 10.45 L-11.2 9.75 Q-10.85 12.75 -10.0 13.45 M10.75 10.55 Q10.75 13.85 9.45 17.3 7.75 21.75 2.15 21.1 L2.1 20.2 Q2.1 16.8 4.0 13.6 6.2 9.95 10.65 9.2 L10.75 10.55 M9.0 13.45 Q9.8 12.75 10.15 9.75 L8.35 10.45 Q6.25 11.45 5.05 12.75 3.1 14.9 2.9 17.5 L4.45 15.65 Q6.2 13.75 7.1 13.75 L9.0 13.45" fill="#415552" fill-rule="evenodd" stroke="none"/>
      <path d="M-10.0 13.45 Q-10.85 12.75 -11.2 9.75 L-9.3 10.45 Q-7.2 11.45 -5.95 12.75 -3.95 14.9 -3.7 17.5 -6.55 13.75 -8.05 13.75 L-10.0 13.45 M9.0 13.45 L7.1 13.75 Q6.2 13.75 4.45 15.65 L2.9 17.5 Q3.1 14.9 5.05 12.75 6.25 11.45 8.35 10.45 L10.15 9.75 Q9.8 12.75 9.0 13.45" fill="#6f7e88" fill-rule="evenodd" stroke="none"/>
    </g>
  </defs>
</svg>
